resources/haticons/SVG/phone_missed.svg

<!-- Generated by IcoMoon.io -->
<svg version="1.1" xmlns="http://www.w3.org/2000/svg" width="24" height="24" viewBox="0 0 24 24">
<title>phone_missed</title>
<path d="M23.719 16.688q0.281 0.281 0.281 0.703t-0.281 0.703l-2.484 2.484q-0.281 0.281-0.703 0.281t-0.703-0.281q-1.313-1.219-2.672-1.875-0.563-0.234-0.563-0.891v-3.094q-2.156-0.703-4.594-0.703t-4.594 0.703v3.094q0 0.703-0.563 0.938-1.5 0.703-2.672 1.828-0.281 0.281-0.703 0.281t-0.703-0.281l-2.484-2.484q-0.281-0.281-0.281-0.703t0.281-0.703q4.922-4.688 11.719-4.688 2.813 0 6.234 1.383t5.484 3.305zM6.516 5.484v3.516h-1.5v-6h6v1.5h-3.516l4.5 4.5 6-6 0.984 0.984-6.984 7.031z"></path>
</svg>

<svg xmlns="http://www.w3.org/2000/svg" width="24" height="24"><path d="M23.719 16.688q.281.281.281.703t-.281.703l-2.484 2.484q-.281.281-.703.281t-.703-.281q-1.313-1.219-2.672-1.875-.563-.234-.563-.891v-3.094q-2.156-.703-4.594-.703t-4.594.703v3.094q0 .703-.563.938-1.5.703-2.672 1.828-.281.281-.703.281t-.703-.281L.281 18.094Q0 17.813 0 17.391t.281-.703Q5.203 12 12 12q2.813 0 6.234 1.383t5.484 3.305zM6.516 5.484V9h-1.5V3h6v1.5H7.5L12 9l6-6 .984.984L12 11.015z"/></svg>
